images/icons/print-icon.svg

<svg width="21px" height="21px" viewBox="0 0 21 21" version="1.1" xmlns="http://www.w3.org/2000/svg" xmlns:xlink="http://www.w3.org/1999/xlink">
    <!-- Generator: Sketch 50.2 (55047) - http://www.bohemiancoding.com/sketch -->
    <desc>Created with Sketch.</desc>
    <defs></defs>
    <g id="Wireframes---Desktop" stroke="none" stroke-width="1" fill="none" fill-rule="evenodd" opacity="0.5">
        <g id="Dash---My-Files---Estate-Planning---Home-Management-(list---selected)" transform="translate(-1118.000000, -328.000000)" fill="#000000">
            <g id="Group-3" transform="translate(957.000000, 239.000000)">
                <g id="Page-1" transform="translate(161.000000, 89.000000)">
                    <path d="M18.9041538,8.48353846 C18.9041538,9.35794615 17.5925538,9.35794615 17.5925538,8.48353846 C17.5925538,7.60823077 18.9041538,7.60823077 18.9041538,8.48353846" id="Fill-1"></path>
                    <path d="M18.9041538,10.1907692 C18.9041538,11.0651769 17.5925538,11.0651769 17.5925538,10.1907692 C17.5925538,9.31636154 18.9041538,9.31636154 18.9041538,10.1907692" id="Fill-2"></path>
                    <path d="M18.7130769,5.80615385 L16.5333923,5.80615385 L16.53249,0.213692308 L4.23595154,0.213692308 L4.23595154,5.80615385 L2.05626692,5.80615385 C0.922243846,5.80615385 6.69230769e-05,6.72833077 6.69230769e-05,7.86235385 L6.69230769e-05,14.2085077 C6.69230769e-05,15.3425308 0.922243846,16.2647077 2.05626692,16.2647077 L3.24255923,16.2647077 C3.44989154,16.2647077 3.61845923,16.0961377 3.61845923,15.8888077 L3.61845923,14.7800308 L4.23685154,14.7800308 L4.23685154,20.0923387 L16.53339,20.0923387 L16.53339,14.7818769 L17.1517823,14.7818769 L17.1517823,15.8906538 C17.1517823,16.0979862 17.3203523,16.2665538 17.5276823,16.2665538 L18.7139746,16.2665538 C19.8479977,16.2665538 20.7701746,15.3443769 20.7701746,14.2103538 L20.7692723,7.86235385 C20.7692723,6.72833077 19.8470954,5.80615385 18.7130723,5.80615385 L18.7130769,5.80615385 Z M4.73723077,0.714 L16.0331538,0.714 L16.0322515,5.80615385 L4.73723077,5.80615385 L4.73723077,0.714 Z M16.0322308,19.5936914 L4.73723077,19.5936914 L4.73723077,12.1855385 L16.0331538,12.1855385 L16.0322308,19.5936914 Z M20.0183077,14.2084615 C20.0183077,14.9287154 19.4323615,15.5137385 18.7130308,15.5137385 L17.9017385,15.5137385 L17.9017385,14.4049615 C17.9017385,14.1976292 17.7331685,14.0290615 17.5258385,14.0290615 L16.5315462,14.0290615 L16.5324462,11.4419077 L4.23590769,11.4419077 L4.23590769,14.0309077 L3.24161538,14.0309077 C3.03428308,14.0309077 2.86571538,14.1994777 2.86571538,14.4068077 L2.86571538,15.5155846 L2.05442308,15.5155846 C1.33416923,15.5155846 0.749146846,14.9296385 0.749146846,14.2103077 L0.750048231,7.86230769 C0.750048231,7.14205385 1.33599462,6.55703077 2.05532538,6.55703077 L18.7122485,6.55703077 C19.4325023,6.55703077 20.0175254,7.14297692 20.0175254,7.86230769 L20.0183077,14.2084615 Z" id="Fill-3"></path>
                </g>
            </g>
        </g>
    </g>
</svg>

<svg height="24" viewBox="0 0 24 24" width="24" xmlns="http://www.w3.org/2000/svg"><g fill-rule="evenodd" opacity=".5" transform="matrix(1.1562868 0 0 1.1562868 .088973 .208128)"><path d="m18.904154 8.4835385c0 .8744077-1.3116.8744077-1.3116 0 0-.8753077 1.3116-.8753077 1.3116 0"/><path d="m18.904154 10.190769c0 .874408-1.3116.874408-1.3116 0 0-.8744075 1.3116-.8744075 1.3116 0"/><path d="m18.713077 5.8061538h-2.179685l-.000902-5.59246149h-12.2965385v5.59246149h-2.1796846c-1.13402305 0-2.05619998.922177-2.05619998 2.0562v6.3461542c0 1.134023.92217693 2.0562 2.05619998 2.0562h1.1862923c.2073323 0 .3759-.16857.3759-.3759v-1.108777h.6183923v5.312308h12.2965385v-5.310462h.618392v1.108777c0 .207332.16857.3759.3759.3759h1.186293c1.134023 0 2.0562-.922177 2.0562-2.0562l-.000903-6.3480002c0-1.134023-.922177-2.0562-2.0562-2.0562zm-13.9758462-5.0921538h11.2959232l-.000903 5.0921538h-11.2950202zm11.2950002 18.879691h-11.2950002v-7.408152h11.2959232zm3.986077-5.385229c0 .720253-.585947 1.305277-1.305277 1.305277h-.811293v-1.108777c0-.207333-.168569-.375901-.3759-.375901h-.994292l.0009-2.587153h-12.2965383v2.589h-.9942923c-.2073323 0-.3759.16857-.3759.3759v1.108777h-.8112923c-.7202539 0-1.30527625-.585947-1.30527625-1.305277l.00090138-6.3480003c0-.7202539.58594637-1.3052769 1.30527717-1.3052769h16.6569226c.720254 0 1.305277.5859461 1.305277 1.3052769z"/></g></svg>
